static/assets/head_icons_png/man/bizi/1004534.svg

<svg xmlns="http://www.w3.org/2000/svg" width="24" height="41"><g transform="translate(3.3 5.65)"><radialGradient id="a" gradientUnits="userSpaceOnUse" gradientTransform="matrix(.00568 -.00209 .00215 .01527 13.6 18.8)" spreadMethod="pad" cx="0" cy="0" r="819.2" fx="0" fy="0"><stop offset=".337" stop-color="#f9c29f"/><stop offset="1" stop-color="#fedec1" stop-opacity="0"/></radialGradient><path d="M19.7 20.7q.05 2.55-3.05 4.85-1.05.75-1.7 3.85v.1l-.2-.35q-.85-4.3-1.1-9.25-.25-4.95-.05-12.6l.2 1.65-.15-1.8q2.25 8.3 4.55 9.75l1.1.95q.4.7.4 2.85" fill="url(#a)"/><radialGradient id="b" gradientUnits="userSpaceOnUse" gradientTransform="matrix(.00397 0 0 .00775 2.55 19)" spreadMethod="pad" cx="0" cy="0" r="819.2" fx="0" fy="0"><stop offset="0" stop-color="#f8c898"/><stop offset=".035" stop-color="#fdc7a7"/><stop offset="1" stop-color="#fdddc0"/></radialGradient><path d="M5.25 24.55l-.1.9q-4.4 2.2-3.8-.8l1-6.25 1.1-9.5 1.3 6.35q.8 5.2.5 9.3" fill="url(#b)"/><radialGradient id="c" gradientUnits="userSpaceOnUse" gradientTransform="matrix(.0001 .00615 -.04132 .00073 13.05 31.4)" spreadMethod="pad" cx="0" cy="0" r="819.2" fx="0" fy="0"><stop offset="0" stop-color="#f8c898"/><stop offset=".035" stop-color="#fdc7a7"/><stop offset="1" stop-color="#fdddc0"/></radialGradient><path d="M12.6 22.7l.85 2.7.55 1.3q.4 1.1-.6 2.2l-.7.6-1.9 1.8q-1.45 1.35-2.75 1.15-1.35-.2-2.7-1.35-1.4-1.2-2.45-1.2-1.1 0-1.55.75-2.3-1.45-2.3-3.55 0-2.2 1.4-3.3 1.4-1.1 1.05-.2-.4.85-.35 2.45Q1.2 27.6 2.3 28l1.6.45q-.6-1.1.35-2.4-.25 1.1.1 1.8l.6 1 .5.5.85.7q.9.6 1.9.6 1.2 0 2.45-1 1.35-1.25 1.9-2.6l-.05-.65-.2-3.55-.1-2.4.4 2.25m-8 3.15l-.25.25.05-.25q.15-1.05.2 0" fill="url(#c)"/><radialGradient id="d" gradientUnits="userSpaceOnUse" gradientTransform="matrix(.00786 -.0013 .003 .01855 11.9 19.95)" spreadMethod="pad" cx="0" cy="0" r="819.2" fx="0" fy="0"><stop offset="0" stop-color="#f8c898"/><stop offset=".035" stop-color="#fdc7a7"/><stop offset="1" stop-color="#fdddc0"/></radialGradient><path d="M11.3 20l-.75-11.45 2.5 7.3q1.75 6.1 2.25 11l.1 1.05q-3.2 2.75-3.8.8l.5-2.25-.65-2.5L11.3 20" fill="url(#d)"/><radialGradient id="e" gradientUnits="userSpaceOnUse" gradientTransform="matrix(.0048 -.00366 .0065 .01395 13.9 24.75)" spreadMethod="pad" cx="0" cy="0" r="819.2" fx="0" fy="0"><stop offset=".337" stop-color="#f9c29f"/><stop offset="1" stop-color="#fedec1" stop-opacity="0"/></radialGradient><path d="M10.55 13.7q4.55 7.2 7.15 7.9 1.1.35 1.4.6.55.55 1.05 3.4.5 2.8-2.3 3.9t-5.55.3q2.65-1.95 1.95-3.95-1.7-4.65-3.7-12.05l.65 1.55-.65-1.65m7.75 20.85v.1l-.15-.2.15.1" fill="url(#e)"/><radialGradient id="f" gradientUnits="userSpaceOnUse" gradientTransform="matrix(-.0131 -.00156 .00331 .0365 -8.15 31.7)" spreadMethod="pad" cx="0" cy="0" r="819.2" fx="0" fy="0"><stop offset=".337" stop-color="#f9c29f"/><stop offset="1" stop-color="#fedec1" stop-opacity="0"/></radialGradient><path d="M4.6 29.85q-2.55.85-4.7 0-2.2-.85-1.8-3.2.35-2.45 2.1-3.3l1.2-.75q.85 5.55 3.2 7.25M6.35 13.7l-.05.15.05-.15M-1.2 34.5l-.15.15v-.1l.15-.05" fill="url(#f)"/><radialGradient id="g" gradientUnits="userSpaceOnUse" gradientTransform="matrix(.0131 -.00156 -.00331 .0365 9.7 13)" spreadMethod="pad" cx="0" cy="0" r="819.2" fx="0" fy="0"><stop offset=".337" stop-color="#f9c29f"/><stop offset="1" stop-color="#fedec1" stop-opacity="0"/></radialGradient><path d="M-3.25-5.5l-.05-.15.1.15h-.05m8.1 9.7l.05 4.9-.4 6.3-.05.8v.5l-.2 1.3.15-.55L4.2 21Q2.3 32.4-.5 9.4q.15-3.95 1.55-6.55l.6-1.3Q-.3-2.55 4.85 4.2" fill="url(#g)"/><radialGradient id="h" gradientUnits="userSpaceOnUse" gradientTransform="matrix(.00732 .00026 -.00024 .00739 7.75 34.35)" spreadMethod="pad" cx="0" cy="0" r="819.2" fx="0" fy="0"><stop offset="0" stop-color="#f39b61"/><stop offset="1" stop-color="#f8be98"/></radialGradient><path d="M13.3 28.6l1.1-.2q2.1-.4 2.05-1.75-.05-1.3-3.55-2.05.65.55.9 1.95l-.05.35q0-1.35-1.1-2.55l-.65-3.4-.75-8.45q-.7-6.15.05-8.1.8-1.95 5.1-4.3-2.65 6.75-2.4 10.4l.6 6.6q.2 2.25 1 5.1l.35 1.05 1.35 1.4q1.25 1.4.75 3.2-.5 1.8-2.2 2.4-1.75.6-2.5 1.1l-2.3 1.35-.4.2q-1.95 1.3-3.6.55L3.8 31.8l-2.3-.65q-2.35-.85-.6-1.6 1.7-.85 3.05.4 1.35 1.2 3.2 2.25 1.85.95 4.9-2.1l1.35-1.85-.1.35" fill="url(#h)"/><radialGradient id="i" gradientUnits="userSpaceOnUse" gradientTransform="matrix(.01274 0 0 .01212 4.6 26.05)" spreadMethod="pad" cx="0" cy="0" r="819.2" fx="0" fy="0"><stop offset="0" stop-color="#f39b61"/><stop offset="1" stop-color="#f9c8a8"/></radialGradient><path d="M13.75 26.9l.05-.35q-.25-1.4-.9-1.95 3.5.75 3.55 2.05.05 1.35-2.05 1.75l-1.1.2.1-.35.35-1.35" fill="url(#i)"/><path d="M14.1 30.65q.5-.6-.2-.5-.7.1-1.5.8l-1.65 1.45-.65.5-.85.35-.65.1-.45-.1-1.35-.45-.25-.1h.05l1 .2 2.2-.3 1.15-.85H11l1.5-1.5q.75-.85 2.1-.65 1.3.2-.5 1.05M2 30.3l.05.45q-1.5-.95-.1-1.1 1.4-.2 2.3.85l2.1 2.05v.05l-.6-.3-1.65-1.25q-1.35-1.1-2.1-.75" fill="#823909"/><radialGradient id="j" gradientUnits="userSpaceOnUse" gradientTransform="matrix(.0028 .00026 -.0001 .01083 7.45 13.45)" spreadMethod="pad" cx="0" cy="0" r="819.2" fx="0" fy="0"><stop offset=".314" stop-color="#fff" stop-opacity=".431"/><stop offset="1" stop-color="#fff" stop-opacity="0"/></radialGradient><path d="M7.45 4.7q.75.05 1.25 2.7.45 2.6.45 6.3-.1 3.6-.6 6.1l-.35 1.35-.1.2q-.35 1-.8.95-.5-.05-.85-1.15l-.05-.2-.35-1.3q-.5-2.65-.45-6.3.05-3.7.6-6.25.5-2.5 1.25-2.4" fill="url(#j)"/><radialGradient id="k" gradientUnits="userSpaceOnUse" gradientTransform="matrix(.00217 .00012 -.00012 .0022 6.85 25.3)" spreadMethod="pad" cx="0" cy="0" r="819.2" fx="0" fy="0"><stop offset=".314" stop-color="#fff" stop-opacity=".431"/><stop offset="1" stop-color="#fff" stop-opacity="0"/></radialGradient><path d="M6.9 23.5q.7 0 1.15.55.5.55.45 1.3-.05.7-.6 1.2-.55.45-1.2.45-.75-.05-1.2-.6-.5-.55-.45-1.25 0-.7.5-1.15.6-.5 1.35-.5" fill="url(#k)"/></g></svg>

<?xml version="1.0" encoding="utf-8"?>
<svg version="1.1" id="Layer_1"
xmlns="http://www.w3.org/2000/svg"
xmlns:xlink="http://www.w3.org/1999/xlink"
xmlns:author="http://www.sothink.com"
width="24px" height="41px"
xml:space="preserve">
<g id="442" transform="matrix(1, 0, 0, 1, 3.3, 5.65)">
<radialGradient
id="RadialGradID_3918" gradientUnits="userSpaceOnUse" gradientTransform="matrix(0.00567627, -0.00209045, 0.00215149, 0.015274, 13.6, 18.8)" spreadMethod ="pad" cx="0" cy="0" r="819.2" fx="0" fy="0" >
<stop  offset="0.337255"  style="stop-color:#F9C29F;stop-opacity:1" />
<stop  offset="1"  style="stop-color:#FEDEC1;stop-opacity:0" />
</radialGradient>
<path style="fill:url(#RadialGradID_3918) " d="M19.7,20.7Q19.75 23.25 16.65 25.55Q15.6 26.3 14.95 29.4L14.95 29.45L14.95 29.5L14.75 29.15Q13.9 24.85 13.65 19.9Q13.4 14.95 13.6 7.3L13.8 8.95L13.65 7.15Q15.9 15.45 18.2 16.9L19.3 17.85Q19.7 18.55 19.7 20.7" />
<radialGradient
id="RadialGradID_3919" gradientUnits="userSpaceOnUse" gradientTransform="matrix(0.00396729, 0, 0, 0.00775146, 2.55, 19)" spreadMethod ="pad" cx="0" cy="0" r="819.2" fx="0" fy="0" >
<stop  offset="0"  style="stop-color:#F8C898;stop-opacity:1" />
<stop  offset="0.0352941"  style="stop-color:#FDC7A7;stop-opacity:1" />
<stop  offset="1"  style="stop-color:#FDDDC0;stop-opacity:1" />
</radialGradient>
<path style="fill:url(#RadialGradID_3919) " d="M5.25,24.55L5.15 25.45Q0.75 27.65 1.35 24.65L2.35 18.4L3.45 8.9L4.75 15.25Q5.55 20.45 5.25 24.55" />
<radialGradient
id="RadialGradID_3920" gradientUnits="userSpaceOnUse" gradientTransform="matrix(0.000106812, 0.00614929, -0.0413208, 0.000732422, 13.05, 31.4)" spreadMethod ="pad" cx="0" cy="0" r="819.2" fx="0" fy="0" >
<stop  offset="0"  style="stop-color:#F8C898;stop-opacity:1" />
<stop  offset="0.0352941"  style="stop-color:#FDC7A7;stop-opacity:1" />
<stop  offset="1"  style="stop-color:#FDDDC0;stop-opacity:1" />
</radialGradient>
<path style="fill:url(#RadialGradID_3920) " d="M12.6,22.7L13.45 25.4L14 26.7Q14.4 27.8 13.4 28.9L12.7 29.5L10.8 31.3Q9.35 32.65 8.05 32.45Q6.7 32.25 5.35 31.1Q3.95 29.9 2.9 29.9Q1.8 29.9 1.35 30.65Q-0.95 29.2 -0.95 27.1Q-0.95 24.9 0.45 23.8Q1.85 22.7 1.5 23.6Q1.1 24.45 1.15 26.05Q1.2 27.6 2.3 28L3.9 28.45Q3.3 27.35 4.25 26.05Q4 27.15 4.35 27.85L4.95 28.85L5.45 29.35L6.3 30.05Q7.2 30.65 8.2 30.65Q9.4 30.65 10.65 29.65Q12 28.4 12.55 27.05L12.5 26.4L12.3 22.85L12.2 20.45L12.6 22.7M4.6,25.85L4.35 26.1L4.4 25.85Q4.55 24.8 4.6 25.85" />
<radialGradient
id="RadialGradID_3921" gradientUnits="userSpaceOnUse" gradientTransform="matrix(0.00785828, -0.001297, 0.00300598, 0.0185547, 11.9, 19.95)" spreadMethod ="pad" cx="0" cy="0" r="819.2" fx="0" fy="0" >
<stop  offset="0"  style="stop-color:#F8C898;stop-opacity:1" />
<stop  offset="0.0352941"  style="stop-color:#FDC7A7;stop-opacity:1" />
<stop  offset="1"  style="stop-color:#FDDDC0;stop-opacity:1" />
</radialGradient>
<path style="fill:url(#RadialGradID_3921) " d="M11.3,20L10.55 8.55L13.05 15.85Q14.8 21.95 15.3 26.85L15.4 27.9Q12.2 30.65 11.6 28.7L12.1 26.45L11.45 23.95L11.3 20" />
<radialGradient
id="RadialGradID_3922" gradientUnits="userSpaceOnUse" gradientTransform="matrix(0.00480652, -0.00366211, 0.00650024, 0.0139465, 13.9, 24.75)" spreadMethod ="pad" cx="0" cy="0" r="819.2" fx="0" fy="0" >
<stop  offset="0.337255"  style="stop-color:#F9C29F;stop-opacity:1" />
<stop  offset="1"  style="stop-color:#FEDEC1;stop-opacity:0" />
</radialGradient>
<path style="fill:url(#RadialGradID_3922) " d="M10.55,13.7Q15.1 20.9 17.7 21.6Q18.8 21.95 19.1 22.2Q19.65 22.75 20.15 25.6Q20.65 28.4 17.85 29.5Q15.05 30.6 12.3 29.8Q14.95 27.85 14.25 25.85Q12.55 21.2 10.55 13.8L11.2 15.35L10.55 13.7M18.3,34.55L18.3 34.65L18.15 34.45L18.3 34.55" />
<radialGradient
id="RadialGradID_3923" gradientUnits="userSpaceOnUse" gradientTransform="matrix(-0.013092, -0.0015564, 0.00331116, 0.036499, -8.15, 31.7)" spreadMethod ="pad" cx="0" cy="0" r="819.2" fx="0" fy="0" >
<stop  offset="0.337255"  style="stop-color:#F9C29F;stop-opacity:1" />
<stop  offset="1"  style="stop-color:#FEDEC1;stop-opacity:0" />
</radialGradient>
<path style="fill:url(#RadialGradID_3923) " d="M4.6,29.85Q2.05 30.7 -0.1 29.85Q-2.3 29 -1.9 26.65Q-1.55 24.2 0.2 23.35L1.4 22.6Q2.25 28.15 4.6 29.85M6.35,13.7L6.3 13.85L6.35 13.7M-1.2,34.5L-1.35 34.65L-1.35 34.55L-1.2 34.5" />
<radialGradient
id="RadialGradID_3924" gradientUnits="userSpaceOnUse" gradientTransform="matrix(0.013092, -0.0015564, -0.00331116, 0.036499, 9.7, 13)" spreadMethod ="pad" cx="0" cy="0" r="819.2" fx="0" fy="0" >
<stop  offset="0.337255"  style="stop-color:#F9C29F;stop-opacity:1" />
<stop  offset="1"  style="stop-color:#FEDEC1;stop-opacity:0" />
</radialGradient>
<path style="fill:url(#RadialGradID_3924) " d="M-3.25,-5.5L-3.3 -5.65L-3.2 -5.5L-3.25 -5.5M4.85,4.2L4.9 9.1L4.5 15.4L4.45 16.2L4.45 16.7L4.25 18L4.4 17.45L4.2 21Q2.3 32.4 -0.5 9.4Q-0.35 5.45 1.05 2.85L1.65 1.55Q-0.3 -2.55 4.85 4.2" />
<radialGradient
id="RadialGradID_3925" gradientUnits="userSpaceOnUse" gradientTransform="matrix(0.00732422, 0.000259399, -0.000244141, 0.00738525, 7.75, 34.35)" spreadMethod ="pad" cx="0" cy="0" r="819.2" fx="0" fy="0" >
<stop  offset="0"  style="stop-color:#F39B61;stop-opacity:1" />
<stop  offset="1"  style="stop-color:#F8BE98;stop-opacity:1" />
</radialGradient>
<path style="fill:url(#RadialGradID_3925) " d="M13.3,28.6L14.4 28.4Q16.5 28 16.45 26.65Q16.4 25.35 12.9 24.6Q13.55 25.15 13.8 26.55L13.75 26.9Q13.75 25.55 12.65 24.35L12 20.95L11.25 12.5Q10.55 6.35 11.3 4.4Q12.1 2.45 16.4 0.1Q13.75 6.85 14 10.5L14.6 17.1Q14.8 19.35 15.6 22.2L15.95 23.25L17.3 24.65Q18.55 26.05 18.05 27.85Q17.55 29.65 15.85 30.25Q14.1 30.85 13.35 31.35L11.05 32.7L10.65 32.9Q8.7 34.2 7.05 33.45L3.8 31.8L1.5 31.15Q-0.85 30.3 0.9 29.55Q2.6 28.7 3.95 29.95Q5.3 31.15 7.15 32.2Q9 33.15 12.05 30.1L13.4 28.25L13.3 28.6" />
<radialGradient
id="RadialGradID_3926" gradientUnits="userSpaceOnUse" gradientTransform="matrix(0.0127411, 0, 0, 0.0121155, 4.6, 26.05)" spreadMethod ="pad" cx="0" cy="0" r="819.2" fx="0" fy="0" >
<stop  offset="0"  style="stop-color:#F39B61;stop-opacity:1" />
<stop  offset="1"  style="stop-color:#F9C8A8;stop-opacity:1" />
</radialGradient>
<path style="fill:url(#RadialGradID_3926) " d="M13.75,26.9L13.8 26.55Q13.55 25.15 12.9 24.6Q16.4 25.35 16.45 26.65Q16.5 28 14.4 28.4L13.3 28.6L13.4 28.25L13.75 26.9" />
<path style="fill:#823909;fill-opacity:1" d="M14.1,30.65Q14.6 30.05 13.9 30.15Q13.2 30.25 12.4 30.95L10.75 32.4L10.1 32.9L9.25 33.25L8.6 33.35L8.15 33.25L6.8 32.8L6.55 32.7L6.6 32.7L7.6 32.9L9.8 32.6L10.95 31.75L11 31.75L12.5 30.25Q13.25 29.4 14.6 29.6Q15.9 29.8 14.1 30.65M2,30.3L2.05 30.75Q0.55 29.8 1.95 29.65Q3.35 29.45 4.25 30.5L6.35 32.55L6.35 32.6L5.75 32.3L4.1 31.05Q2.75 29.95 2 30.3" />
<radialGradient
id="RadialGradID_3927" gradientUnits="userSpaceOnUse" gradientTransform="matrix(0.00279236, 0.000259399, -0.000106812, 0.0108337, 7.45, 13.45)" spreadMethod ="pad" cx="0" cy="0" r="819.2" fx="0" fy="0" >
<stop  offset="0.313725"  style="stop-color:#FFFFFF;stop-opacity:0.431373" />
<stop  offset="1"  style="stop-color:#FFFFFF;stop-opacity:0" />
</radialGradient>
<path style="fill:url(#RadialGradID_3927) " d="M7.45,4.7Q8.2 4.75 8.7 7.4Q9.15 10 9.15 13.7Q9.05 17.3 8.55 19.8L8.2 21.15L8.1 21.35Q7.75 22.35 7.3 22.3Q6.8 22.25 6.45 21.15L6.4 20.95L6.05 19.65Q5.55 17 5.6 13.35Q5.65 9.65 6.2 7.1Q6.7 4.6 7.45 4.7" />
<radialGradient
id="RadialGradID_3928" gradientUnits="userSpaceOnUse" gradientTransform="matrix(0.00216675, 0.00012207, -0.00012207, 0.00219727, 6.85, 25.3)" spreadMethod ="pad" cx="0" cy="0" r="819.2" fx="0" fy="0" >
<stop  offset="0.313725"  style="stop-color:#FFFFFF;stop-opacity:0.431373" />
<stop  offset="1"  style="stop-color:#FFFFFF;stop-opacity:0" />
</radialGradient>
<path style="fill:url(#RadialGradID_3928) " d="M6.9,23.5Q7.6 23.5 8.05 24.05Q8.55 24.6 8.5 25.35Q8.45 26.05 7.9 26.55Q7.35 27 6.7 27Q5.95 26.95 5.5 26.4Q5 25.85 5.05 25.15Q5.05 24.45 5.55 24Q6.15 23.5 6.9 23.5" />
</g>
</svg>
